!!!!SEGMENT: Ano3009-Dentral_mio_cor.krn
!!!id: Ano3009
!!!jrpid: Ano3237
!!!AGN: Madrigal
!!!voices: 4
!!!COM: Anonymous
!!!OTL: Dentr'al mio cor'
**kern	**kern	**kern	**kern
*part4	*part3	*part2	*part1
*staff4	*staff3	*staff2	*staff1
*I"Bassus	*I"Tenor	*I"Altus	*I"Superius
*I'B	*I'T	*I'A	*I'S
*clefF4	*clefGv2	*clefGv2	*clefG2
*k[]	*k[]	*k[]	*k[]
*C:	*C:	*C:	*C:
*M2/1	*M2/1	*M2/1	*M2/1
*met(C)	*met(C)	*met(C)	*met(C)
1C	1c	1G	1e
2E	2B	2G	2e
2E	2B	2G	2e
=1	=1	=1	=1
2F	2A	2A	2c
2F	2A	2D	2d
1E	2B	2G	1e
.	2B	2G	.
=2	=2	=2	=2
1E	2r	2r	1e
.	2e	2B	.
2r	2.e	2c	2r
2E	.	2B	2g
.	4d	.	.
=3	=3	=3	=3
2.E	2c	1.e	2g
.	2B	.	2g
4D	.	.	.
2C	4A	.	2a
.	4G	.	.
2BB	[2G	2d	2b
=4	=4	=4	=4
1AA	4G]	2c	1cc
.	4F#i	.	.
.	4F#i	4B	.
.	8EL	4A	.
.	8F#iJ	.	.
1GG	1G	1d	1b
=5	=5	=5	=5
2r	2r	2r	2r
2C	2e	2c	2g
2C	2e	2c	2g
2C	2e	2c	2g
=6	=6	=6	=6
2GG	2d	2B	2g
2GG	2d	2B	2g
2C	2.e	2c	2.g
2C	.	2c	.
.	4d	.	4f
=7	=7	=7	=7
2C	2c	2G	2e
2BB	2d	2G	2d
1C	1e	1G	1c
=8	=8	=8	=8
1GG	1d	1G	1B
2r	2r	2r	2r
2C	2c	2G	2e
=9	=9	=9	=9
2E	2B	2G	2e
2E	2B	2G	2e
2F	2A	2A	2c
2F	2A	2D	2d
=10	=10	=10	=10
1E	2B	2G	1e
.	2B	2G	.
1E	2r	2r	1e
.	2e	2B	.
=11	=11	=11	=11
2r	2.e	2c	2r
2E	.	2B	2g
.	4d	.	.
2.E	2c	[1e	2g
.	2B	.	2g
4D	.	.	.
=12	=12	=12	=12
2C	4A	2e]	2a
.	4G	.	.
2BB	2.G	2d	2b
1AA	.	2c	1cc
.	4F#i	.	.
.	4F#i	4B	.
.	8EL	4A	.
.	8F#iJ	.	.
=13	=13	=13	=13
1GG	1G	1d	1b
2r	2r	2r	2r
2C	2e	2c	2g
=14	=14	=14	=14
2C	2e	2c	2g
2C	2e	2c	2g
2GG	2d	2B	2g
2GG	2d	2B	2g
=15	=15	=15	=15
2C	2.e	2c	2.g
2C	.	2c	.
.	4d	.	4f
2C	2c	2G	2e
2BB	2d	2G	2d
=16	=16	=16	=16
1C	1e	1G	1c
1GG	1d	1G	1B
=17	=17	=17	=17
2r	2r	2r	2r
2C	2c	2e	2g
2D	2A	2d	2f
2GG	2G	2B	2e
=18	=18	=18	=18
2AA	2F	2c	2f
2BB	2F	4B	2d
.	.	4A	.
1C	4E	1G	1e
.	4F	.	.
.	4G	.	.
.	4A	.	.
=19	=19	=19	=19
2GG	2B	2G	2d
2GG	2G	2D	2B
2C	2G	2E	2c
2GG	2G	2D	2B
=20	=20	=20	=20
2C	2G	2E	2c
2AA	2F	2C	2c
1GG	2G	1D	2B
.	2G	.	2B
=21	=21	=21	=21
1GG	2r	1D	2r
.	2G	.	2B
1r	2G	1r	2B
.	2F	.	2A
=22	=22	=22	=22
2r	2G	2r	2.B
2G	2E	2B	.
.	.	.	4c
2G	2D	2B	2d
2F	2D	2A	2d
=23	=23	=23	=23
2G	2r	2.B	2r
2E	2G	.	2B
.	.	4c	.
2D	2G	2d	2B
2D	2F	2d	2A
=24	=24	=24	=24
2r	2G	2r	2.B
2G	2E	2B	.
.	.	.	4c
2G	2D	2B	2d
2F	2D	2A	2d
=25	=25	=25	=25
2G	2r	2.B	2r
2E	2G	.	2e
.	.	4c	.
2D	1A	2d	1f
2D	.	2d	.
=26	=26	=26	=26
2r	1A	2r	1f
2D	.	2d	.
2C	1c	2e	1g
2C	.	2e	.
=27	=27	=27	=27
2D	2A	2d	2f
2D	1A	2d	2f
1A	.	2c	2.e
.	2c	2c	.
.	.	.	4f
=28	=28	=28	=28
2G	2B	1d	2g
2F	2A	.	1a
1E	1B	1e	.
.	.	.	2g#i
=29	=29	=29	=29
2AA	2A	2c	1a
2AA	2A	2c	.
2r	2r	2r	1a
2A	2c	2f	.
=30	=30	=30	=30
1.B-X	1.d	1.f	0r
2A	2c	2f	.
=31	=31	=31	=31
2G	2B	2e	1r
2F	2A	1d	.
1E	1G	.	2r
.	.	2c#i	2e
=32	=32	=32	=32
2D	2A	2d	1.f
2D	2A	2d	.
2BB-X	2B-X	2d	.
2C	2G	2c	2e
=33	=33	=33	=33
2GG	2G	2B-X	2d
2AA	2E	2A	2c
1GG	1G	1d	1B
=34	=34	=34	=34
1D	1F	1d	1A
2r	2r	2r	2r
2D	2A	2d	2f
=35	=35	=35	=35
1C	1c	1e	1g
2D	2A	2d	2f
[2F	[2A	[2c	[2f
=36	=36	=36	=36
2F]	2A]	2c]	2f]
2C	2G	2c	2e
2D	2F	2A	2d
2D	2F	2A	2d
=37	=37	=37	=37
2.AA	2E	2A	4c
.	.	.	4B
.	2.A	4G	4c
4BB	.	4F	4d
2C	.	2E	4e
.	4G	.	4d
[2D	4F	2D	[2f
.	4E	.	.
=38	=38	=38	=38
2D]	2D	0A	2f]
2C	2E	.	1e
1D	1F	.	.
.	.	.	2d
=39	=39	=39	=39
1r	1E	1B	1e
1D	2r	2r	2r
.	2A	2d	2f
=40	=40	=40	=40
1C	1c	1e	1g
2D	2A	2d	2f
[2F	[2A	[2c	[2f
=41	=41	=41	=41
2F]	2A]	2c]	2f]
2C	2G	2c	2e
2D	2F	2A	2d
2D	2F	2A	2d
=42	=42	=42	=42
2.AA	2E	2A	4c
.	.	.	4B
.	2.A	4G	4c
4BB	.	4F	4d
2C	.	2E	4e
.	4G	.	4d
[2D	4F	2D	[2f
.	4E	.	.
=43	=43	=43	=43
2D]	2D	1A	2f]
2C	2E	.	1e
1D	4F	[1A	.
.	4G	.	.
.	4A	.	2d
.	4B	.	.
=44	=44	=44	=44
2AA	2c	2A]	[0el
2GG	2B	2B	.
1AA	1A	1c	.
=45	=45	=45	=45
00El	00G#Xl	00Bl	00e]
==	==	==	==
*-	*-	*-	*-
!!!system-decoration: [*]
!!!RDF**kern: i = editorial accidental
!!!RDF**kern: l = terminal long
!!!ENC: Benjamin Ory
!!!END: 2024/5/10
!!!EED: Benjamin Ory
!!!EEV: 2024/05/10
!!!YEC: Copyright 2024 Benjamin Ory, All Rights Reserved
!!!ONB: Translated from MusicXML on 2024/05/10
